dist/svgs/unicons/line/keyhole-square.svg

<svg xmlns="http://www.w3.org/2000/svg" viewBox="0 0 24 24"><path d="M19 2H5a3 3 0 00-3 3v14a3 3 0 003 3h14a3 3 0 003-3V5a3 3 0 00-3-3zm1 17a1 1 0 01-1 1H5a1 1 0 01-1-1V5a1 1 0 011-1h14a1 1 0 011 1zM12 8a2 2 0 00-2 2 2 2 0 001 1.72V15a1 1 0 002 0v-3.28A2 2 0 0014 10a2 2 0 00-2-2z"/></svg>

<svg xmlns="http://www.w3.org/2000/svg" viewBox="0 0 24 24"><path d="M19,2H5A3,3,0,0,0,2,5V19a3,3,0,0,0,3,3H19a3,3,0,0,0,3-3V5A3,3,0,0,0,19,2Zm1,17a1,1,0,0,1-1,1H5a1,1,0,0,1-1-1V5A1,1,0,0,1,5,4H19a1,1,0,0,1,1,1ZM12,8a2,2,0,0,0-2,2,2,2,0,0,0,1,1.72V15a1,1,0,0,0,2,0V11.72A2,2,0,0,0,14,10,2,2,0,0,0,12,8Z"/></svg>
